src/assets/icon/group_add.svg

<svg width="24" height="24" viewBox="0 0 24 24" fill="none" xmlns="http://www.w3.org/2000/svg">
<mask id="mask0_338_5375" style="mask-type:alpha" maskUnits="userSpaceOnUse" x="0" y="0" width="24" height="24">
<rect width="24" height="24" fill="#D9D9D9"/>
</mask>
<g mask="url(#mask0_338_5375)">
<path d="M12.5967 11.6424C13.0222 11.1795 13.3369 10.6481 13.5409 10.0481C13.7448 9.44813 13.8467 8.82955 13.8467 8.19238C13.8467 7.55522 13.7448 6.93663 13.5409 6.33663C13.3369 5.73663 13.0222 5.20522 12.5967 4.74238C13.4748 4.84372 14.204 5.22288 14.7842 5.87988C15.3642 6.53705 15.6542 7.30788 15.6542 8.19238C15.6542 9.07705 15.3642 9.84788 14.7842 10.5049C14.204 11.1619 13.4748 11.541 12.5967 11.6424ZM17.4599 19.3079C17.5856 19.0784 17.6814 18.8341 17.7474 18.5751C17.8136 18.3161 17.8467 18.054 17.8467 17.7886V16.9616C17.8467 16.4165 17.7358 15.8978 17.5139 15.4056C17.2921 14.9135 16.9773 14.4911 16.5697 14.1386C17.3363 14.3938 18.0421 14.738 18.6869 15.1714C19.3318 15.6047 19.6542 16.2015 19.6542 16.9616V17.7886C19.6542 18.2103 19.5064 18.569 19.2109 18.8646C18.9154 19.1601 18.5568 19.3079 18.1352 19.3079H17.4599ZM19.6542 10.7501H18.4042C18.1917 10.7501 18.0136 10.6782 17.8699 10.5344C17.7261 10.3905 17.6542 10.2124 17.6542 9.99988C17.6542 9.78722 17.7261 9.60913 17.8699 9.46563C18.0136 9.32197 18.1917 9.25013 18.4042 9.25013H19.6542V8.00013C19.6542 7.78763 19.7261 7.60955 19.8699 7.46588C20.0138 7.32205 20.192 7.25013 20.4047 7.25013C20.6172 7.25013 20.7953 7.32205 20.9389 7.46588C21.0824 7.60955 21.1542 7.78763 21.1542 8.00013V9.25013H22.4042C22.6167 9.25013 22.7948 9.32205 22.9387 9.46588C23.0823 9.60972 23.1542 9.78788 23.1542 10.0004C23.1542 10.213 23.0823 10.3911 22.9387 10.5346C22.7948 10.6783 22.6167 10.7501 22.4042 10.7501H21.1542V12.0001C21.1542 12.2126 21.0823 12.3907 20.9384 12.5344C20.7946 12.6782 20.6164 12.7501 20.4039 12.7501C20.1913 12.7501 20.0132 12.6782 19.8697 12.5344C19.726 12.3907 19.6542 12.2126 19.6542 12.0001V10.7501ZM8.34668 11.6924C7.38418 11.6924 6.56018 11.3497 5.87468 10.6644C5.18935 9.97888 4.84668 9.15488 4.84668 8.19238C4.84668 7.22988 5.18935 6.40597 5.87468 5.72063C6.56018 5.03513 7.38418 4.69238 8.34668 4.69238C9.30918 4.69238 10.1331 5.03513 10.8184 5.72063C11.5039 6.40597 11.8467 7.22988 11.8467 8.19238C11.8467 9.15488 11.5039 9.97888 10.8184 10.6644C10.1331 11.3497 9.30918 11.6924 8.34668 11.6924ZM0.84668 17.7886V17.0846C0.84668 16.595 0.97968 16.1415 1.24568 15.7241C1.51168 15.3068 1.8671 14.986 2.31193 14.7616C3.30043 14.2771 4.2976 13.9137 5.30343 13.6714C6.3091 13.429 7.32351 13.3079 8.34668 13.3079C9.36968 13.3079 10.3841 13.429 11.3899 13.6714C12.3956 13.9137 13.3927 14.2771 14.3812 14.7616C14.826 14.986 15.1814 15.3068 15.4474 15.7241C15.7136 16.1415 15.8467 16.595 15.8467 17.0846V17.7886C15.8467 18.2103 15.6989 18.569 15.4034 18.8646C15.1079 19.1601 14.7493 19.3079 14.3274 19.3079H2.36593C1.9441 19.3079 1.58543 19.1601 1.28993 18.8646C0.99443 18.569 0.84668 18.2103 0.84668 17.7886ZM8.34668 10.1924C8.89668 10.1924 9.36751 9.99655 9.75918 9.60488C10.1508 9.21322 10.3467 8.74238 10.3467 8.19238C10.3467 7.64238 10.1508 7.17155 9.75918 6.77988C9.36751 6.38822 8.89668 6.19238 8.34668 6.19238C7.79668 6.19238 7.32585 6.38822 6.93418 6.77988C6.54251 7.17155 6.34668 7.64238 6.34668 8.19238C6.34668 8.74238 6.54251 9.21322 6.93418 9.60488C7.32585 9.99655 7.79668 10.1924 8.34668 10.1924ZM2.34668 17.8079H14.3467V17.0846C14.3467 16.8821 14.288 16.6946 14.1707 16.5221C14.0533 16.3498 13.894 16.2091 13.6927 16.1001C12.8312 15.6758 11.9528 15.3543 11.0574 15.1356C10.1619 14.9171 9.25835 14.8079 8.34668 14.8079C7.43485 14.8079 6.53126 14.9171 5.63593 15.1356C4.74043 15.3543 3.86193 15.6758 3.00043 16.1001C2.7991 16.2091 2.63985 16.3498 2.52268 16.5221C2.40535 16.6946 2.34668 16.8821 2.34668 17.0846V17.8079Z" fill="black"/>
</g>
</svg>

<svg xmlns="http://www.w3.org/2000/svg" width="24" height="24" fill="none" xmlns:v="https://vecta.io/nano"><mask id="A" maskUnits="userSpaceOnUse" x="0" y="0" width="24" height="24" mask-type="alpha"><path fill="#d9d9d9" d="M0 0h24v24H0z"/></mask><g mask="url(#A)"><path d="M12.597 11.642c.425-.463.74-.994.944-1.594a5.73 5.73 0 0 0 .306-1.856 5.73 5.73 0 0 0-.306-1.856 4.44 4.44 0 0 0-.944-1.594 3.33 3.33 0 0 1 2.188 1.138 3.38 3.38 0 0 1 .87 2.313 3.38 3.38 0 0 1-.87 2.313 3.33 3.33 0 0 1-2.187 1.138zm4.863 7.666c.126-.23.221-.474.287-.733s.099-.521.099-.787v-.827c0-.545-.111-1.064-.333-1.556s-.537-.915-.944-1.267a8.7 8.7 0 0 1 2.117 1.033c.645.433.967 1.03.967 1.79v.827c0 .422-.148.78-.443 1.076s-.654.443-1.076.443h-.675zm2.194-8.558h-1.25c-.212 0-.391-.072-.534-.216s-.216-.322-.216-.535.072-.391.216-.534.322-.216.534-.216h1.25V8c0-.213.072-.391.216-.534s.322-.216.535-.216.391.072.534.216.215.322.215.534v1.25h1.25c.213 0 .391.072.535.216s.215.322.215.535-.072.391-.215.534-.322.216-.535.216h-1.25V12c0 .213-.072.391-.216.534s-.322.216-.535.216-.391-.072-.534-.216-.216-.322-.216-.534v-1.25zm-11.308.942a3.37 3.37 0 0 1-2.472-1.028 3.37 3.37 0 0 1-1.028-2.472 3.37 3.37 0 0 1 1.028-2.472 3.37 3.37 0 0 1 2.472-1.028c.963 0 1.786.343 2.472 1.028s1.028 1.509 1.028 2.472a3.37 3.37 0 0 1-1.028 2.472 3.37 3.37 0 0 1-2.472 1.028zm-7.5 6.096v-.704c0-.49.133-.943.399-1.36s.621-.738 1.066-.963c.989-.484 1.986-.848 2.992-1.09s2.02-.364 3.043-.364 2.037.121 3.043.364 2.003.606 2.991 1.09c.445.224.8.545 1.066.963a2.48 2.48 0 0 1 .399 1.36v.704c0 .422-.148.78-.443 1.076s-.654.443-1.076.443H2.366c-.422 0-.781-.148-1.076-.443s-.443-.654-.443-1.076zm7.5-7.596c.55 0 1.021-.196 1.413-.588s.588-.862.588-1.412-.196-1.021-.588-1.412-.863-.588-1.413-.588-1.021.196-1.412.588-.587.862-.587 1.412.196 1.021.587 1.412.863.588 1.412.588zm-6 7.616h12v-.723a.98.98 0 0 0-.176-.562c-.117-.172-.277-.313-.478-.422a12.86 12.86 0 0 0-2.635-.965c-.896-.219-1.799-.328-2.711-.328s-1.815.109-2.711.328A12.86 12.86 0 0 0 3 16.1a1.33 1.33 0 0 0-.478.422.98.98 0 0 0-.176.563v.723z" fill="#000"/></g></svg>
